icon-themes/breeze_svg/svtools/res/triangle_right.svg

<svg viewBox="0 0 14 14" xmlns="http://www.w3.org/2000/svg"><path d="m4.6386719 1-.6386719.75 3.6855469 4.09375 1.0351562 1.15625-1.0351562 1.15625-3.6855469 4.125.6386719.71875 3.6855469-4.125 1.6757812-1.875-1.6757812-1.875z" fill="#4d4d4d"/></svg>

<svg xmlns="http://www.w3.org/2000/svg" viewBox="0 0 14 14">
        <path
           style="fill:#4d4d4d"
           d="M 4.6386719 1 L 4 1.75 L 7.6855469 5.84375 L 8.7207031 7 L 7.6855469 8.15625 L 4 12.28125 L 4.6386719 13 L 8.3242188 8.875 L 10 7 L 8.3242188 5.125 L 4.6386719 1 z " />
</svg>
